svg/fluentui-system-icons/ic_fluent_text_indent_decrease_rtl_16_filled.svg

<svg width="16" height="16" viewBox="0 0 16 16" fill="none" xmlns="http://www.w3.org/2000/svg">
<path d="M4 3.75C4 3.33579 4.33579 3 4.75 3H10.25C10.6642 3 11 3.33579 11 3.75C11 4.16421 10.6642 4.5 10.25 4.5H4.75C4.33579 4.5 4 4.16421 4 3.75ZM12.2197 5.71967C12.5126 5.42678 12.9874 5.42678 13.2803 5.71967L14.7803 7.21967C15.0732 7.51256 15.0732 7.98744 14.7803 8.28033L13.2803 9.78033C12.9874 10.0732 12.5126 10.0732 12.2197 9.78033C11.9268 9.48744 11.9268 9.01256 12.2197 8.71967L13.1893 7.75L12.2197 6.78033C11.9268 6.48744 11.9268 6.01256 12.2197 5.71967ZM1 7.75C1 7.33579 1.33579 7 1.75 7H10.25C10.6642 7 11 7.33579 11 7.75C11 8.16421 10.6642 8.5 10.25 8.5H1.75C1.33579 8.5 1 8.16421 1 7.75ZM6 11.75C6 11.3358 6.33579 11 6.75 11H10.25C10.6642 11 11 11.3358 11 11.75C11 12.1642 10.6642 12.5 10.25 12.5H6.75C6.33579 12.5 6 12.1642 6 11.75Z" fill="#212121"/>
</svg>

<svg xmlns="http://www.w3.org/2000/svg" width="16" height="16"><path d="M4 3.75A.75.75 0 0 1 4.75 3h5.5a.75.75 0 0 1 0 1.5h-5.5A.75.75 0 0 1 4 3.75Zm8.22 1.97a.75.75 0 0 1 1.06 0l1.5 1.5a.75.75 0 0 1 0 1.06l-1.5 1.5a.75.75 0 1 1-1.06-1.06l.97-.97-.97-.97a.75.75 0 0 1 0-1.06ZM1 7.75A.75.75 0 0 1 1.75 7h8.5a.75.75 0 0 1 0 1.5h-8.5A.75.75 0 0 1 1 7.75Zm5 4a.75.75 0 0 1 .75-.75h3.5a.75.75 0 0 1 0 1.5h-3.5a.75.75 0 0 1-.75-.75Z"/></svg>
